img/organize/1.svg

<svg width="35" height="56" viewBox="0 0 35 56" fill="none" xmlns="http://www.w3.org/2000/svg">
<path d="M6.9306 9.54951C6.9306 9.54951 7.93061 2.54961 8.69061 1.89961C9.12061 1.49961 23.6906 1.49961 24.0906 1.89961C24.8606 2.59961 25.4906 9.54951 25.4906 9.54951H6.9306Z" stroke="#009245" stroke-width="2" stroke-miterlimit="10"/>
<path d="M7.1106 45.0996C7.1106 45.0996 7.92061 53.0997 8.69061 53.7697C9.12061 54.1597 23.6906 54.1597 24.0906 53.7697C24.8606 53.0597 25.6706 45.0996 25.6706 45.0996H7.1106Z" stroke="#009245" stroke-width="2" stroke-miterlimit="10"/>
<path d="M6.69061 45.0305C5.37989 45.0276 4.11748 44.5356 3.15063 43.6506C2.45645 42.8895 2.00394 41.9392 1.85059 40.9205V13.9205C2.00291 12.9045 2.45569 11.9573 3.15063 11.2006C4.11492 10.3103 5.37818 9.81421 6.69061 9.81055H25.6906C27.0029 9.81518 28.2658 10.3111 29.2306 11.2006C29.9255 11.9561 30.3753 12.9044 30.5206 13.9205V19.0605H31.6706C31.9733 19.0639 32.2699 19.1467 32.5306 19.3005C32.7563 19.4855 32.9231 19.7323 33.0106 20.0106V24.5906C32.9243 24.8723 32.7575 25.1225 32.5306 25.3105C32.2699 25.4644 31.9733 25.5472 31.6706 25.5505H30.5206V40.9305C30.3742 41.9493 29.9247 42.9005 29.2306 43.6605C28.2627 44.5439 27.001 45.0357 25.6906 45.0405L6.69061 45.0305Z" stroke="#009245" stroke-width="2" stroke-miterlimit="10"/>
<path d="M10.0006 24.7197L16.2206 34.4998L24.3706 19.0098" stroke="#009245" stroke-width="2" stroke-miterlimit="10" stroke-linecap="round"/>
</svg>

<svg width="35" height="56" fill="none" xmlns="http://www.w3.org/2000/svg"><path d="M6.93 9.55s1-7 1.76-7.65c.43-.4 15-.4 15.4 0 .77.7 1.4 7.65 1.4 7.65H6.93zm.18 35.55s.81 8 1.58 8.67c.43.39 15 .39 15.4 0 .77-.71 1.58-8.67 1.58-8.67H7.11zm-.42-.07a5.26 5.26 0 01-3.54-1.38 5.2 5.2 0 01-1.3-2.73v-27a5.15 5.15 0 011.3-2.72 5.24 5.24 0 013.54-1.39h19a5.25 5.25 0 013.54 1.39 5.08 5.08 0 011.29 2.72v5.14h1.15c.303.004.6.087.86.24a1.5 1.5 0 01.48.71v4.58a1.509 1.509 0 01-.48.72c-.26.154-.557.237-.86.24h-1.15v15.38a5.13 5.13 0 01-1.29 2.73 5.28 5.28 0 01-3.54 1.38l-19-.01z" stroke="#009245" stroke-width="2" stroke-miterlimit="10"/><path d="M10 24.72l6.22 9.78 8.15-15.49" stroke="#009245" stroke-width="2" stroke-miterlimit="10" stroke-linecap="round"/></svg>
